dist/assets/img/twitter.svg

<svg width="26" height="21" viewBox="0 0 26 21" fill="none" xmlns="http://www.w3.org/2000/svg">
<path d="M26 2.48608C25.0331 2.90769 24.0029 3.18715 22.9287 3.32285C24.0337 2.667 24.8771 1.63638 25.2736 0.394154C24.2434 1.00477 23.1059 1.43608 21.8936 1.67677C20.9154 0.641308 19.5211 0 18.0001 0C15.0491 0 12.6734 2.38108 12.6734 5.30008C12.6734 5.72008 12.7091 6.12392 12.7969 6.50838C8.3655 6.29354 4.44438 4.18223 1.81025 0.966C1.35037 1.75915 1.08063 2.667 1.08063 3.64431C1.08063 5.47938 2.03125 7.10608 3.44825 8.04785C2.59187 8.03169 1.75175 7.78454 1.04 7.39523C1.04 7.41138 1.04 7.43238 1.04 7.45338C1.04 10.0283 2.88762 12.1671 5.3105 12.6598C4.87663 12.7777 4.40375 12.8342 3.913 12.8342C3.57175 12.8342 3.22725 12.8148 2.90387 12.7438C3.5945 14.8422 5.55425 16.3848 7.8845 16.4349C6.071 17.8452 3.76838 18.6948 1.27562 18.6948C0.8385 18.6948 0.41925 18.6755 0 18.6222C2.36112 20.1358 5.15938 21 8.177 21C17.9855 21 23.348 12.9231 23.348 5.922C23.348 5.68777 23.3399 5.46162 23.3285 5.23708C24.3864 4.49077 25.2752 3.55869 26 2.48608Z" fill="#03A9F4"/>
</svg>

<svg width="26" height="21" fill="none" xmlns="http://www.w3.org/2000/svg"><path d="M26 2.486c-.967.422-1.997.701-3.071.837A5.275 5.275 0 0025.274.394a10.69 10.69 0 01-3.38 1.283A5.356 5.356 0 0018 0c-2.95 0-5.327 2.381-5.327 5.3 0 .42.036.824.124 1.208A15.117 15.117 0 011.81.966a5.31 5.31 0 00-.73 2.678 5.3 5.3 0 002.368 4.404 5.288 5.288 0 01-2.408-.653v.058c0 2.575 1.848 4.714 4.27 5.207a5.35 5.35 0 01-1.397.174c-.341 0-.686-.02-1.01-.09a5.377 5.377 0 004.981 3.69 10.75 10.75 0 01-6.608 2.26c-.438 0-.857-.018-1.276-.072A15.071 15.071 0 008.177 21c9.808 0 15.171-8.077 15.171-15.078 0-.234-.008-.46-.02-.685A10.6 10.6 0 0026 2.487z" fill="#03A9F4"/></svg>
